X: 77
T: Bonney Dundee
P: Longways for as many as will
%R: jig
B: "The Compleat Country Dancing-Master" printed by John Walsh, London ca. 1740
S: 6: CCDM1 http://imslp.org/wiki/The_Compleat_Country_Dancing-Master_(Various) V.1 p.117 #178 (234)
Z: 2013 John Chambers <jc:trillian.mit.edu>
M: 6/4
L: 1/4
K: Gm
% - - - - - - - - - - - - - - - - - - - - - - - - -
B>AG G>AB | A2F Ac2 |\
Bdd d2g | d>c B/A/ G3 |] f |\
f>g a/g/ f>g a/g/ | f2F A/B/cc |
=e/^f/gg g2b | a>g f/=e/ d2=e |\
f>g a/g/ f>g a/g/ | f2F A/B/cc |\
d2d =e>^fg | d>c B/A/ G2 |]
% - - - - - - - - Dance description - - - - - - - -
%%begintext align
%% The 1st Cu. take Hands and lead down to the 2d Man, then fall back, and
%% all four turn S. then 2d Cu. take Hands and lead up to the 1st Wo. so fall
%% back and turn S.
%%endtext
%%sep 1 1 300
%%begintext align
%% The 1st Man go round about the 1st Wo. into his own Place, and 2d Wo.
%% go round about the 1st Man into her own Place; then 1st Wo. go
%% round about the 1st Man into her own Place, and 2d Man go round
%% about the 2d Wo. into his own Place; then all four Hands half round,
%% so fall back, meet, and clap Hands, and turn your own.
%% [CCDM1]
%%endtext
%%sep 1 8 500

%%sep 1 1 500
%%sep 1 1 500
